X:45
T:Billy in the Lowground
C:Traditional
N:Transcribed by Simon Sharatel
R:bluegrass
L:1/8
Q:1/4=210
M:4/4
K:C
CA, |: "C"G,A, CD EG AB | cB cd cA G2 | "Am"AB AG EG AB | cA Gc AG ED | "C"CB, CD EG AB | 
cA Bd cA G2 | "Am"Ac AG ED CD |1 "G"EC DB, "C"CG, A,C :|2 "G"EC DB, "C"C2 dc |]
|: e2 g2 g2 ef | ge ag ed c2 | "F"fg a2 a2 fg | ed cB cd ef | "C"ge ga g2 ed | 
cB cd c2 cB | "Am"Ac ec dc AB | "G"cA GE "C"C4 :| 


